icons/jinja_light.svg

<svg xmlns="http://www.w3.org/2000/svg" viewBox="0 0 32 32"><path d="M30,8V4A94.41712,94.41712,0,0,1,16,5,94.41712,94.41712,0,0,1,2,4V8s1.48169.24652,3.9505.49481L5.4,14H2v2H5.2L4,28h6V16H22V28h6L26.8,16H30V14H26.6L26.0495,8.49481C28.51831,8.24652,30,8,30,8ZM10,14V8.81683c1.235.074,2.57574.131,4,.16022V14Zm12,0H18V8.97705c1.42426-.02924,2.765-.08624,4-.16022Z" style="fill:#616161"/></svg>

<svg xmlns="http://www.w3.org/2000/svg" viewBox="0 0 32 32"><path fill="#616161" d="M30 8V4a94.417 94.417 0 0 1-14 1A94.417 94.417 0 0 1 2 4v4s1.482.247 3.95.495L5.4 14H2v2h3.2L4 28h6V16h12v12h6l-1.2-12H30v-2h-3.4l-.55-5.505C28.517 8.247 30 8 30 8Zm-20 6V8.817c1.235.074 2.576.13 4 .16V14Zm12 0h-4V8.977a103.57 103.57 0 0 0 4-.16Z"/></svg>
